X: 1
T: Banks Of Kale Water
M: 4/4
L: 1/8
R: reel
K: Dmaj
z2z4 Ac |: d2 fd c2 ec | B2 dB AFDF | G2 BG FGAf | gfed cdec |
 d2 fd c2 ec | B2 dB AFDF | G2 BG FGAa |1 fedc d2 Ac :|2 fedc d2 dd ||
 bagf edcA| agfe dcBA | gfed cABc | d2 de f2 Ac |
 d2 fd c2 ec | B2 dB AFDF | G2 BG FGAf | gfed cdec |
 d/2d/2d fd c/2c/2c ec | B/2B/2B dB AFDF| G2 BG FGAa| fedc d2 z2||
